!!!COM: Corelli, Arcangelo
!!!OTL: 
!!!ONM: Opus 6, No. 8
!!!OMV: 3
!!!CDT: 1653/2/17/-1713/1/8/
!!!OCY: Italia
**kern	**kern	**kern	**kern	**kern	**kern	**kern
*clefC	*clefG	*clefG	*clefG	*clefC	*clefG	*clefG
*k[b-]	*k[b-]	*k[b-]	*k[b-]	*k[b-]	*k[b-]	*k[b-]
*d:	*d:	*d:	*d:	*d:	*d:	*d:
*M4/4	*M4/4	*M4/4	*M4/4	*M4/4	*M4/4	*M4/4
=1	=1	=1	=1	=1	=1	=1
1r	1r	1r	1r	8r	4r	2gg
.	.	.	.	8G	.	.
.	.	.	.	8B-	2gg	.
.	.	.	.	8G	.	.
.	.	.	.	8c	.	2aa
.	.	.	.	8A	.	.
.	.	.	.	8d	4ff#	.
.	.	.	.	8D	.	.
=2	=2	=2	=2	=2	=2	=2
8r	8r	2gg	4r	8G	2gg	4bb-
8GG	8B-	.	.	8GG	.	.
8BB-	8d	.	2gg	8BB-	.	2gg
8GG	8B-	.	.	8GG	.	.
8C	8e-	2aa	.	8C	2aa	.
8AA	8c	.	.	8AA	.	.
8D	4d	.	4ff#	8D	.	4ff#
8DD	.	.	.	8DD	.	.
=3	=3	=3	=3	=3	=3	=3
4GG	4d	4bb-	4gg	8GG	2gg	4gg
.	.	.	.	8B-	.	.
2.r	2.r	2.r	2.r	8d	.	2bb-
.	.	.	.	8B-	.	.
.	.	.	.	8e-	2ccc	.
.	.	.	.	8c	.	.
.	.	.	.	8f	.	4aa
.	.	.	.	8F	.	.
=4	=4	=4	=4	=4	=4	=4
8r	8r	4r	2bb-	8B-	4ddd	2bb-
8BB-	8d	.	.	8BB-	.	.
8D	8f	2bb-	.	8D	2bb-	.
8BB-	8d	.	.	8BB-	.	.
8E-	8g	.	2ccc	8E-	.	2ccc
8C	8e-	.	.	8C	.	.
8F	4f	4aa	.	8F	4aa	.
8FF	.	.	.	8FF	.	.
=5	=5	=5	=5	=5	=5	=5
4BB-	4f	4bb-	4ddd	8BB-	4r	4ddd
.	.	.	.	8B-	.	.
2.r	2.r	2.r	2.r	8d	4ddd	2bb-
.	.	.	.	8D	.	.
.	.	.	.	8E	2ccc	.
.	.	.	.	8c	.	.
.	.	.	.	8F#	.	[4aa
.	.	.	.	8d	.	.
=6	=6	=6	=6	=6	=6	=6
2..r	2..r	2.r	2.r	8G	2bb-	4aa]
.	.	.	.	8A	.	.
.	.	.	.	8B-	.	2gg
.	.	.	.	8c	.	.
.	.	.	.	8d	4aa	.
.	.	.	.	8c	.	.
.	.	[4dd	4ff#	8d	[4dd	4ff#
8D	8dd	.	.	8D	.	.
=7	=7	=7	=7	=7	=7	=7
8E-	4g	8dd]	4.gg	8E-	8dd]	4.gg
8D	.	8g	.	8D	8g	.
8E-	8r	2cc	.	8E-	2cc	.
8C	8ee-	.	8aa	8C	.	8aa
8D	4a	.	8ff#	8D	.	8ff#
8F#	.	.	8dd	8F#	.	8dd
8G	8r	4b-	[4gg	8G	4b-	[4gg
8BB-	8d	.	.	8BB-	.	.
=8	=8	=8	=8	=8	=8	=8
8C	8e-	2a	4gg]	8C	2a	4gg]
8AA	8c	.	.	8AA	.	.
8D	4d	.	4ff#	8D	.	4ff#
8DD	.	.	.	8DD	.	.
4GG	4d	4g	4gg	8GG	4g	4gg
.	.	.	.	8B-	.	.
4r	4r	4r	4r	8d	4r	[4b-
.	.	.	.	8B-	.	.
=9	=9	=9	=9	=9	=9	=9
1r	1r	1r	1r	8e-	2.cc	4b-]
.	.	.	.	8c	.	.
.	.	.	.	8f	.	4a
.	.	.	.	8F	.	.
.	.	.	.	8B-	.	[2dd
.	.	.	.	8c	.	.
.	.	.	.	8d	4b-	.
.	.	.	.	8B-	.	.
=10	=10	=10	=10	=10	=10	=10
1r	1r	1r	1r	8c	2.ee-	4dd]
.	.	.	.	8d	.	.
.	.	.	.	8e-	.	4cc
.	.	.	.	8c	.	.
.	.	.	.	8A	.	[2ff
.	.	.	.	8F	.	.
.	.	.	.	8B-	4dd	.
.	.	.	.	8D	.	.
=11	=11	=11	=11	=11	=11	=11
2r	2r	2r	2r	8E-	2gg	4ff]
.	.	.	.	8F	.	.
.	.	.	.	8G	.	2ee-
.	.	.	.	8E-	.	.
4F	4f	4a	4cc	8F	4aa	.
.	.	.	.	8F	.	.
8r	8r	8r	8r	8G	4bb-	4dd
8D	8f	8ff	8dd	8D	.	.
=12	=12	=12	=12	=12	=12	=12
8E-	4B-	4ee-	8g	8E-	4ee-	8g
8F	.	.	8a	8F	.	8a
8G	8r	4dd	2b-	8G	4dd	2b-
8D	8f	.	.	8D	.	.
8E-	8g	2cc	.	8E-	2cc	.
8C	8e-	.	.	8C	.	.
8F	4f	.	4a	8F	.	4a
8FF	.	.	.	8FF	.	.
=13	=13	=13	=13	=13	=13	=13
4BB-	4d	4b-	4b-	8BB-	4b-	4b-
.	.	.	.	8d	.	.
2.r	2.r	2.r	2.r	8B-	4r	2gg
.	.	.	.	8G	.	.
.	.	.	.	8c	[2aa	.
.	.	.	.	8B-	.	.
.	.	.	.	8d	.	4ff#
.	.	.	.	8D	.	.
=14	=14	=14	=14	=14	=14	=14
1r	1r	1r	1r	8G	4aa]	2.bb-
.	.	.	.	8A	.	.
.	.	.	.	8B-	4gg	.
.	.	.	.	8G	.	.
.	.	.	.	8E-	[2ccc	.
.	.	.	.	8C	.	.
.	.	.	.	8F	.	4aa
.	.	.	.	8FF	.	.
=15	=15	=15	=15	=15	=15	=15
8BB-	4f	4r	4r	8BB-	4ccc]	2ddd
8C	.	.	.	8C	.	.
8D	4f	2bb-	4ddd	8D	2bb-	.
8E	.	.	.	8E	.	.
8F	4f	.	2ccc	8F	.	2ccc
8G	.	.	.	8G	.	.
8A	4r	[4aa	.	8A	[4aa	.
8F#	.	.	.	8F#	.	.
=16	=16	=16	=16	=16	=16	=16
8G	4d	4aa]	2bb-	8G	4aa]	2bb-
8A	.	.	.	8A	.	.
8B-	4d	2gg	.	8B-	2gg	.
8c	.	.	.	8c	.	.
8d	4d	.	2aa	8d	.	2aa
8D	.	.	.	8D	.	.
8F	4r	[4ff	.	8F	[4ff	.
8D	.	.	.	8D	.	.
=17	=17	=17	=17	=17	=17	=17
8E-	4b-	4ff]	2gg	8E-	4ff]	2gg
8F	.	.	.	8F	.	.
8G	4b-	2ee-	.	8G	2ee-	.
8A	.	.	.	8A	.	.
8B-	4b-	.	2ff	8B-	.	2ff
8BB-	.	.	.	8BB-	.	.
8D	8r	[4dd	.	8D	[4dd	.
8BB-	8dd	.	.	8BB-	.	.
=18	=18	=18	=18	=18	=18	=18
8C	4g	4dd]	2ee-	8C	4dd]	2ee-
8D	.	.	.	8D	.	.
8E-	8r	2cc	.	8E-	2cc	.
8C	8ee-	.	.	8C	.	.
8D	4a	.	4f#	8D	.	4f#
8d	.	.	.	8d	.	.
8e-	8r	4b-	[4g	8e-	4b-	[4g
8B-	8d	.	.	8B-	.	.
=19	=19	=19	=19	=19	=19	=19
8c	8e-	2a	4g]	8c	2a	4g]
8A	8c	.	.	8A	.	.
8d	4d	.	4f#	8d	.	4f#
8D	.	.	.	8D	.	.
4G	2d	4g	4g	4G	4g	4g
4F	.	4a	[4dd	4F	4a	[4dd
=20	=20	=20	=20	=20	=20	=20
2E-	4r	2g	4dd]	2E-	2g	4dd]
.	4g	.	4cc	.	.	4cc
2D	2a	4f#	4dd	2D	4f#	4dd
.	.	[4dd	4a	.	[4dd	4a
=21	=21	=21	=21	=21	=21	=21
2E-	4r	4dd]	2g	2E-	4dd]	2g
.	4G	4cc	.	.	4cc	.
2D	2A	2dd	2f#	2D	2dd	2f#
=22	=22	=22	=22	=22	=22	=22
1r	1r	1r	1r	8d	4.ff#	4.aa
.	.	.	.	8D	.	.
.	.	.	.	8F#	.	.
.	.	.	.	8D	8ff#	8aa
.	.	.	.	8G	2gg	4bb-
.	.	.	.	8A	.	.
.	.	.	.	8B-	.	[4gg
.	.	.	.	8G	.	.
=23	=23	=23	=23	=23	=23	=23
4r	4r	4r	4r	8d	4aa	4gg]
.	.	.	.	8D	.	.
4D	4dd	4aa	4ff#	8F#	4ddd	4ff#
.	.	.	.	8D	.	.
4G	2dd	4bb-	4gg	8G	2bb-	2gg
.	.	.	.	8A	.	.
4GG	.	4g	4b-	8B-	.	.
.	.	.	.	8G	.	.
=24	=24	=24	=24	=24	=24	=24
1r	1r	1r	1r	8c	4.ee	4.gg
.	.	.	.	8C	.	.
.	.	.	.	8E	.	.
.	.	.	.	8C	8ee	8gg
.	.	.	.	8F	2ff	4aa
.	.	.	.	8G	.	.
.	.	.	.	8A	.	[4ff
.	.	.	.	8F	.	.
=25	=25	=25	=25	=25	=25	=25
4r	4r	4r	4r	8c	4gg	4ff]
.	.	.	.	8C	.	.
4C	4cc	4gg	4ee	8E	4ccc	4ee
.	.	.	.	8C	.	.
4F	2cc	4aa	4ff	8F	2aa	2ff
.	.	.	.	8G	.	.
4FF	.	4f	4a	8A	.	.
.	.	.	.	8F	.	.
=26	=26	=26	=26	=26	=26	=26
1r	1r	1r	1r	8B-	4.dd	4.ff
.	.	.	.	8c	.	.
.	.	.	.	8B-	.	.
.	.	.	.	8A	8dd	8ff
.	.	.	.	4.G	8ee	8gg
.	.	.	.	.	8ff	8aa
.	.	.	.	.	8ee	8gg
.	.	.	.	8G	8dd	8ff
=27	=27	=27	=27	=27	=27	=27
4A	4a	4cc#	4ee	8A	4cc#	8ee
.	.	.	.	8G	.	8a
8r	8r	8r	4.aa	8F	8r	4.aa
8F	8a	8aa	.	8D	8aa	.
8G	4d	4.bb-	.	8G	4.bb-	.
8A	.	.	8dd	8A	.	8dd
8B-	8r	.	[4gg	8B-	.	[4gg
8G	8b-	8bb-	.	8G	8bb-	.
=28	=28	=28	=28	=28	=28	=28
8A	4e	8cc#	4gg]	8A	8cc#	4gg]
8c#	.	8a	.	8c#	8a	.
8d	8r	2dd	4ff	8d	2dd	4ff
8F	8a	.	.	8F	.	.
8G	8b-	.	2ee	8G	.	4.ee
8E	8g	.	.	8E	.	.
8A	4a	4cc#	.	8A	4cc#	.
8AA	.	.	.	8AA	.	8aa
=29	=29	=29	=29	=29	=29	=29
4D	4a	4dd	4dd	8D	4.dd	8ff
.	.	.	.	8E	.	8dd
2.r	2.r	2.r	2.r	8F	.	2ff
.	.	.	.	8D	8cc	.
.	.	.	.	8G	8b	.
.	.	.	.	8B	8g	.
.	.	.	.	8c	[4cc	4ee-
.	.	.	.	8E-	.	.
=30	=30	=30	=30	=30	=30	=30
4r	4r	4r	4r	8F	4cc]	4.dd
.	.	.	.	8D	.	.
4G	4g	4b	4dd	8G	4b	.
.	.	.	.	8GG	.	8gg
4C	4g	4cc	4ee-	8C	4.cc	8ee-
.	.	.	.	8D	.	8cc
4r	4r	4r	4r	8E-	.	[4ee-
.	.	.	.	8C	8b-	.
=31	=31	=31	=31	=31	=31	=31
2.r	2.r	2.r	2.r	8F	8a	4ee-]
.	.	.	.	8A	8f	.
.	.	.	.	8B-	2b-	4dd
.	.	.	.	8D	.	.
.	.	.	.	8E-	.	4.cc
.	.	.	.	8C	.	.
4F	4f	4a	4cc	8F	4a	.
.	.	.	.	8FF	.	8ff
=32	=32	=32	=32	=32	=32	=32
8BB-	4f	8b-	4dd	8BB-	4r	8dd
8B-	.	8f	.	8B-	.	8b-
8d	4r	4dd	4bb-	8d	4dd	4bb-
8B-	.	.	.	8B-	.	.
8f	4f	4cc	4r	8f	4cc	4r
8F	.	.	.	8F	.	.
8A	4r	4ff	4aa	8A	4ff	4aa
8F	.	.	.	8F	.	.
=33	=33	=33	=33	=33	=33	=33
8G	4d	4r	4b-	8G	4r	4b-
8A	.	.	.	8A	.	.
8B-	4r	4b-	4gg	8B-	4b-	4gg
8c	.	.	.	8c	.	.
8d	4d	4a	4r	8d	4a	4r
8D	.	.	.	8D	.	.
8F	4r	4dd	4ff	8F	4dd	4ff
8D	.	.	.	8D	.	.
=34	=34	=34	=34	=34	=34	=34
8E-	4B-	4r	4g	8E-	4r	4g
8F	.	.	.	8F	.	.
8G	4r	4g	4ee-	8G	4g	4ee-
8A	.	.	.	8A	.	.
8B-	4B-	4f	4r	8B-	4f	4r
8BB-	.	.	.	8BB-	.	.
8D	4r	4b-	4dd	8D	4b-	4dd
8BB-	.	.	.	8BB-	.	.
=35	=35	=35	=35	=35	=35	=35
8C	4g	4r	4e-	8C	4r	4e-
8D	.	.	.	8D	.	.
8E-	8r	4ee-	2cc	8E-	4ee-	2cc
8C	8cc	.	.	8C	.	.
8D	4a	4f#	.	8D	4f#	.
8d	.	.	.	8d	.	.
8e-	8r	[4g	4b-	8e-	[4g	4b-
8B-	8d	.	.	8B-	.	.
=36	=36	=36	=36	=36	=36	=36
8c	8e-	4g]	2a	8c	4g]	2a
8A	8c	.	.	8A	.	.
8d	4d	4f#	.	8d	4f#	.
8D	.	.	.	8D	.	.
8G	4d	4r	4g	8G	4r	4g
8B-	.	.	.	8B-	.	.
8d	4r	4dd	4bb-	8d	4dd	4bb-
8B-	.	.	.	8B-	.	.
=37	=37	=37	=37	=37	=37	=37
8f	4f	4cc	4r	8f	4cc	4r
8F	.	.	.	8F	.	.
8A	4r	4ff	4aa	8A	4ff	4aa
8F	.	.	.	8F	.	.
8G	4d	4r	4b-	8G	4r	4b-
8A	.	.	.	8A	.	.
8B-	4r	4b-	4gg	8B-	4b-	4gg
8c	.	.	.	8c	.	.
=38	=38	=38	=38	=38	=38	=38
8d	4d	4a	4r	8d	4a	4r
8D	.	.	.	8D	.	.
8F	4r	4dd	4ff	8F	4dd	4ff
8D	.	.	.	8D	.	.
8E-	4B-	4r	4g	8E-	4r	4g
8F	.	.	.	8F	.	.
8G	4r	4g	4ee-	8G	4g	4ee-
8A	.	.	.	8A	.	.
=39	=39	=39	=39	=39	=39	=39
8B-	4B-	4f	4r	8B-	4f	4r
8BB-	.	.	.	8BB-	.	.
8D	4r	4b-	4dd	8D	4b-	4dd
8BB-	.	.	.	8BB-	.	.
8C	4g	4r	4e-	8C	4r	4e-
8D	.	.	.	8D	.	.
8E-	8r	4ee-	[4cc	8E-	4ee-	[4cc
8C	8cc	.	.	8C	.	.
=40	=40	=40	=40	=40	=40	=40
8D	4a	4f#	4cc]	8D	4f#	4cc]
8d	.	.	.	8d	.	.
8e-	8r	2g	4b-	8e-	2g	4b-
8B-	8d	.	.	8B-	.	.
8c	8e-	.	2a	8c	.	2a
8A	8c	.	.	8A	.	.
8d	4d	4f#	.	8d	4f#	.
8D	.	.	.	8D	.	.
=41	=41	=41	=41	=41	=41	=41
8G	4d	4g	4g	8G	4g	4g
8F	.	.	.	8F	.	.
8E-	8r	2cc	4ee-	8E-	2cc	4ee-
8C	8e-	.	.	8C	.	.
8D	4A	.	4f#	8D	.	4f#
8D	.	.	.	8D	.	.
8E-	8r	4b-	[4g	8E-	4b-	[4g
8BB-	8d	.	.	8BB-	.	.
=42	=42	=42	=42	=42	=42	=42
8C	8e-	2a	4g]	8C	2a	4g]
8AA	8c	.	.	8AA	.	.
8D	4d	.	4f#	8D	.	4f#
8DD	.	.	.	8DD	.	.
2GG	2d	2g	2g	2GG	2g	2g
==	==	==	==	==	==	==
*-	*-	*-	*-	*-	*-	*-
!!!RWG: This file only contains pitch and duration data.
!!!RWG: Transposing instruments are not transposed.
!!!RWG: Durations of rests and tied notes may be interpreted.
!!!RWG: Key is interpreted using the Humdrum key tool.
!!!SCA: 
!!!YOR: Chrysander Edition
!!!AGN: concerto grosso
!!!AFT: stage1
!!!ENC: F. Bennion
!!!END: 1997/04/15
!!!AST: baroque
!!!YEC: Copyright 1994, Center for Computer Assisted Research in the Humanities
!!!YEM: Rights to all derivative electronic formats reserved.
!!!YEM: Refer to licensing agreement for further details.
!!!YEN: United States of America
!!!EED: W.B. Hewlett
!!!KEY: 1382758439
!!!EMD: Converted from MuseData to Humdrum Aug 9, 1999, by Bret Aarden using muse2kern.
!!!VTS: 2457214835
